X:1
T: Penobscot Memory
I:
R: waltz
C: W-44
C: Vince O'Donnell
Z:
M:3/4
K:G
D2|"G"DB3B2 | "F"A=F2G AF |"G"G3ABc |d2B2G2 |"C"ce3e2 |"G"d3B GB |"F"A6-|"D"A4 D2|
"G"DB3B2 | "F"A=F2G AF |"G"G3A  Bc |B2G2D2 |"C"EG3 G2 |"D"DA3 BA|"C"G6-|"G"G2 "B7"G2F2|
\
"Em"E4 E2 |e3f ge |"D"fg fe d2-|d2f2a2 |"C"g4 g2-|g2 f2e2 |"G"d6-|d2 "B7"G2F2 |
"Em"E4 E2 |"C"g4 g2 |"G"e d-d4 |"Em"e4 B2 |"Am"A3  B c2-|"D"c2 B2 A2 |"C"G6-|"G"G4|]
%
